apps/portfolio/src/portfolio/static/assets/icons/process_unification.svg

<svg
  width="800px"
  height="800px"
  viewBox="0 0 24 24"
  fill="none"
  xmlns="http://www.w3.org/2000/svg"
>
  <path
    d="m18 8 v7.3 c0 1.1201 0 1.6802-0.218 2.108-0.1917 0.3763-0.4977 0.6823-0.874 0.874-0.4278 0.218-0.9879 0.218-2.108 0.218
      h-2.8 m6-10.5 c1.3807 0 2.5-1.1193 2.5-2.5 s-1.1193-2.5-2.5-2.5-2.5 1.1193-2.5 2.5 1.1193 2.5 2.5 2.5 z m-6 10.5 2-2.5
      m-2 2.5 2 2.5 m-8-5 v-7.3
      c0-1.1201 0-1.6802 0.21799-2.108 0.19174-0.37633 0.4977-0.68229 0.87403-0.87403 0.42782-0.21799 0.98788-0.21799 2.108-0.21799
      h2.8 m-6 10.5 c-1.3807 0-2.5 1.1193-2.5 2.5 s1.1193 2.5 2.5 2.5 2.5-1.1193 2.5-2.5-1.1193-2.5-2.5-2.5 z m6-10.5-2 2.5
      m2-2.5-2-2.5"
    stroke="#fff"
    stroke-width="1.5"
    stroke-linecap="round"
    stroke-linejoin="round"
  />
</svg>

<?xml version="1.0" encoding="utf-8"?><!-- Скачано с сайта svg4.ru / Downloaded from svg4.ru -->
<svg width="800px" height="800px" viewBox="0 0 24 24" fill="none" xmlns="http://www.w3.org/2000/svg">
<path d="M18 8V15.3C18 16.4201 18 16.9802 17.782 17.408C17.5903 17.7843 17.2843 18.0903 16.908 18.282C16.4802 18.5 15.9201 18.5 14.8 18.5H12M18 8C19.3807 8 20.5 6.88071 20.5 5.5C20.5 4.11929 19.3807 3 18 3C16.6193 3 15.5 4.11929 15.5 5.5C15.5 6.88071 16.6193 8 18 8ZM12 18.5L14 16M12 18.5L14 21M6 16V8.7C6 7.5799 6 7.01984 6.21799 6.59202C6.40973 6.21569 6.71569 5.90973 7.09202 5.71799C7.51984 5.5 8.0799 5.5 9.2 5.5H12M6 16C4.61929 16 3.5 17.1193 3.5 18.5C3.5 19.8807 4.61929 21 6 21C7.38071 21 8.5 19.8807 8.5 18.5C8.5 17.1193 7.38071 16 6 16ZM12 5.5L10 8M12 5.5L10 3" stroke="#000000" stroke-width="2" stroke-linecap="round" stroke-linejoin="round"/>
</svg>
